X:058
U: ~ = !turn!
%%topmargin 3cm
T:Dr. Gilbert
B:Traditional Irish Fiddle Tunes. Randy Miller and Jack Perron.
Z:Transcribed by Ralph Palmer
R:Reel
L:1/8
M:C|
K:G
gf "(A"| eB ((3cBA) Bd{/e}dB | ((3ABd) Ac BAGF "A)"| EDB,D ((3GFE) ((3FED) "(B"| EB, ((3{/C}B,A,B,) FB, ((3{/C}B,A,B,) "B)"|
DE ((3FED) EDB,D | ((3GFE) ((3FED) EFGA | ((3Bcd) ed Bdeb | [1 afBf efgf :|] [2 afdf e3 f ||
|: eB ((3{/c}BAB) gB ((3{/c}BAB) | defa {/b}afdf | g2 bg fa{/b}af | ((3efg) fd eB ((3{/c}BAB) |
afdf edBc | ((3dcB) AF AFDF | EB{/c}BA Bdeb | afdf e3 g :|]
xxxx "(A"|| eB ((3cBA) ~B3 c | dBAc BAGF "A)"|| xxxx	"(B"|| EB, ((3{/C}B,A,B,) DB,A,B, "B)"|| xxxx[|]
